X:977
T:Reel 977
M:4/4
K:Dmaj
L:1/8
FE|DB,A,B, D2DF|EGFD EGFE|DB,A,B, D2DF|EGFD EDB,C|DB,A,B, D2DE|EGAE EDEF|DB,A,B, D2FG|AFEF D2| (3ABc |d2dB c2cA|BABc BAFA|dBcA B2AF|EDEF EDB,2|d2Ac B2dB|AGFD EDB,C|DB,DE FGAd|BGEG D2|
